assets/fonts/svg-files-for-custom-font/dropbox.svg

<svg enable-background="new 0 0 20 20" viewBox="0 0 20 20" xmlns="http://www.w3.org/2000/svg"><path d="m6.109.902-5.709 3.555 3.911 3.279 5.689-3.693zm7.343 15.09c-.102 0-.203-.033-.285-.102l-3.167-2.628-3.167 2.629c-.082.068-.184.102-.285.102-.085 0-.17-.023-.244-.072l-2.346-1.533v.904l6.042 3.806 6.042-3.807v-.904l-2.346 1.533c-.074.049-.159.072-.244.072zm6.148-11.535-5.71-3.555-3.89 3.141 5.688 3.693zm-9.6 6.834 3.528 2.928 5.641-3.688-3.481-2.795zm-3.528 2.928 3.528-2.928-5.689-3.555-3.48 2.795z"/></svg>

<?xml version="1.0" encoding="utf-8"?>
<!-- Generator: Adobe Illustrator 18.1.1, SVG Export Plug-In . SVG Version: 6.00 Build 0)  -->
<!DOCTYPE svg PUBLIC "-//W3C//DTD SVG 1.1//EN" "http://www.w3.org/Graphics/SVG/1.1/DTD/svg11.dtd">
<svg version="1.1" id="Dropbox" xmlns="http://www.w3.org/2000/svg" xmlns:xlink="http://www.w3.org/1999/xlink" x="0px" y="0px"
	 viewBox="0 0 20 20" enable-background="new 0 0 20 20" xml:space="preserve">
<path d="M6.109,0.902L0.4,4.457l3.911,3.279L10,4.043L6.109,0.902z M13.452,15.992c-0.102,0-0.203-0.033-0.285-0.102L10,13.262
	l-3.167,2.629c-0.082,0.068-0.184,0.102-0.285,0.102c-0.085,0-0.17-0.023-0.244-0.072l-2.346-1.533v0.904L10,19.098l6.042-3.807
	v-0.904l-2.346,1.533C13.622,15.969,13.537,15.992,13.452,15.992z M19.6,4.457l-5.71-3.555L10,4.043l5.688,3.693L19.6,4.457z
	 M10,11.291l3.528,2.928l5.641-3.688l-3.481-2.795L10,11.291z M6.472,14.219L10,11.291L4.311,7.736l-3.48,2.795L6.472,14.219z"/>
</svg>
